src/components/Icon/assets/checkbox.svg

<svg width="24" height="24" viewBox="0 0 24 24" fill="none" xmlns="http://www.w3.org/2000/svg">
<path fill-rule="evenodd" clip-rule="evenodd" d="M7.0002 3.00009H17.0002C19.2092 3.00009 21.0002 4.79109 21.0002 7.00009V17.0001C21.0002 19.2091 19.2092 21.0001 17.0002 21.0001H7.0002C4.7912 21.0001 3.0002 19.2091 3.0002 17.0001V7.00009C3.0002 4.79109 4.7912 3.00009 7.0002 3.00009ZM19.0002 7.00009C19.0002 5.89709 18.1032 5.00009 17.0002 5.00009H7.0002C5.8972 5.00009 5.0002 5.89709 5.0002 7.00009V17.0001C5.0002 18.1031 5.8972 19.0001 7.0002 19.0001H17.0002C18.1032 19.0001 19.0002 18.1031 19.0002 17.0001V7.00009ZM6.58598 12.1391L8.00044 10.7252L10.8603 13.5861L17.0002 7.44617L18.4144 8.86039L10.8601 16.4147L6.58598 12.1391Z" fill="#65676A"/>
</svg>

<svg xmlns="http://www.w3.org/2000/svg" width="24" height="24" viewBox="0 0 24 24">
    <path fill="#65676A" fill-rule="evenodd" d="M17 3c2.21 0 4 1.791 4 4v10c0 2.21-1.79 4-4 4H7c-2.209 0-4-1.79-4-4V7c0-2.209 1.791-4 4-4zm0 2H7c-1.103 0-2 .897-2 2v10c0 1.103.897 2 2 2h10c1.103 0 2-.897 2-2V7c0-1.103-.897-2-2-2zm0 2.446l1.414 1.414-7.554 7.555-4.274-4.276L8 10.725l2.86 2.861L17 7.446z"/>
</svg>
